svg/part/scarf_line.svg

<?xml version="1.0" encoding="UTF-8"?>
<svg width="24px" height="24px" viewBox="0 0 24 24" version="1.1" xmlns="http://www.w3.org/2000/svg" xmlns:xlink="http://www.w3.org/1999/xlink">
    <title>scarf_line</title>
    <g id="Icon" stroke="none" stroke-width="1" fill="none" fill-rule="evenodd">
        <g id="Part" transform="translate(-384.000000, -96.000000)">
            <g id="scarf_line" transform="translate(384.000000, 96.000000)">
                <path d="M24,0 L24,24 L0,24 L0,0 L24,0 Z M12.5934901,23.257841 L12.5819402,23.2595131 L12.5108777,23.2950439 L12.4918791,23.2987469 L12.4918791,23.2987469 L12.4767152,23.2950439 L12.4056548,23.2595131 C12.3958229,23.2563662 12.3870493,23.2590235 12.3821421,23.2649074 L12.3780323,23.275831 L12.360941,23.7031097 L12.3658947,23.7234994 L12.3769048,23.7357139 L12.4804777,23.8096931 L12.4953491,23.8136134 L12.4953491,23.8136134 L12.5071152,23.8096931 L12.6106902,23.7357139 L12.6232938,23.7196733 L12.6232938,23.7196733 L12.6266527,23.7031097 L12.609561,23.275831 C12.6075724,23.2657013 12.6010112,23.2592993 12.5934901,23.257841 L12.5934901,23.257841 Z M12.8583906,23.1452862 L12.8445485,23.1473072 L12.6598443,23.2396597 L12.6498822,23.2499052 L12.6498822,23.2499052 L12.6471943,23.2611114 L12.6650943,23.6906389 L12.6699349,23.7034178 L12.6699349,23.7034178 L12.678386,23.7104931 L12.8793402,23.8032389 C12.8914285,23.8068999 12.9022333,23.8029875 12.9078286,23.7952264 L12.9118235,23.7811639 L12.8776777,23.1665331 C12.8752882,23.1545897 12.8674102,23.1470016 12.8583906,23.1452862 L12.8583906,23.1452862 Z M12.1430473,23.1473072 C12.1332178,23.1423925 12.1221763,23.1452606 12.1156365,23.1525954 L12.1099173,23.1665331 L12.0757714,23.7811639 C12.0751323,23.7926639 12.0828099,23.8018602 12.0926481,23.8045676 L12.108256,23.8032389 L12.3092106,23.7104931 L12.3186497,23.7024347 L12.3186497,23.7024347 L12.3225043,23.6906389 L12.340401,23.2611114 L12.337245,23.2485176 L12.337245,23.2485176 L12.3277531,23.2396597 L12.1430473,23.1473072 Z" id="MingCute" fill-rule="nonzero"></path>
                <path d="M8.82836875,3 C8.03272,3 7.26966,3.31607 6.70705,3.87868 L3.70705,6.87868 C2.53547,8.05026 2.53548,9.94975 3.70705,11.1213 L7.19172,14.606 C7.0779,15.7125 7.44494,16.8592 8.29284,17.7071 C9.14073,18.555 10.2874,18.922 11.394,18.8082 L12.7928,20.2071 C13.1834,20.5976 13.8165,20.5976 14.207,20.2071 C14.5976,19.8166 14.5976,19.1834 14.207,18.7929 L13.3985,17.9843 C13.5051,17.8985 13.6081,17.8061 13.7071,17.7071 L13.9999,17.4142 L15.2928,18.7071 C15.6834,19.0976 16.3165,19.0976 16.707,18.7071 C17.0976,18.3166 17.0976,17.6834 16.707,17.2929 L15.4142,16 L15.9999,15.4142 L17.7928,17.2071 C18.1834,17.5976 18.8165,17.5976 19.2071,17.2071 C19.5976,16.8166 19.5976,16.1834 19.2071,15.7929 L17.4142,14 L20.2928,11.1213 C21.4644,9.94975 21.4644,8.05026 20.2928,6.87868 L17.2928,3.87868 C16.7302,3.31607 15.9672,3 15.1715,3 L8.82836875,3 Z M18.8786,9.70711 C19.2691,9.31658 19.2691,8.68342 18.8786,8.29289 L15.8786,5.29289 C15.6911,5.10536 15.4367,5 15.1715,5 L8.82837,5 C8.56315,5 8.3088,5.10536 8.12126,5.29289 L5.12126,8.29289 C4.73074,8.68342 4.73074,9.31658 5.12126,9.70711 L8.0156,12.6014 C8.10146,12.4949 8.19387,12.3919 8.29284,12.2929 L10.5857,10 L9.29284,8.70711 C8.90231,8.31658 8.90231,7.68342 9.29284,7.29289 C9.68336,6.90237 10.3165,6.90237 10.707,7.29289 L11.9999,8.58579 L14.2928,6.29289 C14.6834,5.90237 15.3165,5.90237 15.707,6.29289 C16.0976,6.68342 16.0976,7.31658 15.707,7.70711 L9.70705,13.7071 C8.993,14.4212 8.993,15.5788 9.70705,16.2929 C10.4211,17.0069 11.5788,17.0069 12.2928,16.2929 L18.8786,9.70711 Z" id="形状" fill="#09244B"></path>
            </g>
        </g>
    </g>
</svg>

<svg xmlns="http://www.w3.org/2000/svg" width="24" height="24"><g fill="none" fill-rule="evenodd"><path d="M24 0v24H0V0h24ZM12.593 23.258l-.011.002-.071.035-.02.004-.014-.004-.071-.035c-.01-.004-.019-.001-.024.005l-.004.01-.017.428.005.02.01.013.104.074.015.004.012-.004.104-.074.012-.016.004-.017-.017-.427c-.002-.01-.009-.017-.017-.018Zm.265-.113-.013.002-.185.093-.01.01-.003.011.018.43.005.012.008.007.201.093c.012.004.023 0 .029-.008l.004-.014-.034-.614c-.003-.012-.01-.02-.02-.022Zm-.715.002a.023.023 0 0 0-.027.006l-.006.014-.034.614c0 .012.007.02.017.024l.015-.002.201-.093.01-.008.004-.011.017-.43-.003-.012-.01-.01-.184-.092Z"/><path fill="#09244B" d="M8.828 3a3 3 0 0 0-2.12.879l-3.001 3a3 3 0 0 0 0 4.242l3.485 3.485a3.821 3.821 0 0 0 1.1 3.101 3.821 3.821 0 0 0 3.102 1.101l1.399 1.4a1 1 0 0 0 1.414-1.415l-.809-.809c.107-.086.21-.178.31-.277l.292-.293 1.293 1.293a1 1 0 0 0 1.414-1.414L15.414 16l.586-.586 1.793 1.793a1 1 0 0 0 1.414-1.414L17.414 14l2.879-2.879a3 3 0 0 0 0-4.242l-3-3A3 3 0 0 0 15.172 3H8.828Zm10.05 6.707a1 1 0 0 0 0-1.414l-3-3A1 1 0 0 0 15.172 5H8.829a1 1 0 0 0-.707.293l-3 3a1 1 0 0 0 0 1.414l2.895 2.894c.085-.106.178-.21.277-.308L10.586 10 9.293 8.707a1 1 0 0 1 1.414-1.414L12 8.586l2.293-2.293a1 1 0 1 1 1.414 1.414l-6 6a1.828 1.828 0 0 0 2.586 2.586l6.586-6.586Z"/></g></svg>
